X:1
%
T:Quick Step [19]
M:C
L:1/8
R:March
B:Gow & Shepherd - Collection of entirely original strathspey, reels, marches, quicksteps etc. (1797, p. 23)
Z:AK/Fiddler's Companion
K:G
d<c|{c}BAG{G}D G>AB>c|d2g2 A>e d/G/B/G/|B2A2A2 d>c|
{c}BAGD G>ABc|d>g A>e d>eTd>c|B2G2G2:|
d|gdbg e>dcB|ceac d>cBA|B/G/d/B/ .g.d.B.G {G}B>A|A3d gdbg|
e>dc>B cead|dcBA B>cde|d>cB>A {A}BG G2|{d}gdbg e>dc>B|ceac d>cB>A|
B/G/d/B/ .g.d.B.G {G}B>A|A2 d>c {c}BAG{G}D|G>AB>c d2g2|A>e d>eTd>c z2|B2 G2 G3||

